packages/vibrant-icons/assets/icons/ChevronDownCircle/Thin.svg

<svg width="24" height="24" viewBox="0 0 24 24" fill="none" xmlns="http://www.w3.org/2000/svg">
<path d="M6.35092 10.5611C6.27281 10.6392 6.27282 10.7658 6.35095 10.8439L11.8591 16.35C11.9372 16.428 12.0638 16.428 12.1419 16.35L17.6495 10.8441C17.7276 10.766 17.7276 10.6393 17.6495 10.5612L16.7299 9.64153C16.6518 9.56344 16.5252 9.56342 16.4471 9.6415L12 14.0868L7.55339 9.64138C7.47529 9.5633 7.34867 9.5633 7.27057 9.6414L6.35092 10.5611Z" fill="#0C0C0C"/>
<path fill-rule="evenodd" clip-rule="evenodd" d="M11.9999 22.8499C17.9924 22.8499 22.8499 17.9924 22.8499 11.9999C22.8499 6.0074 17.9924 1.1499 11.9999 1.1499C6.0074 1.1499 1.1499 6.0074 1.1499 11.9999C1.1499 17.9924 6.0074 22.8499 11.9999 22.8499ZM11.9999 2.8499C17.0454 2.8499 21.1499 6.9544 21.1499 11.9999C21.1499 17.0454 17.0454 21.1499 11.9999 21.1499C6.9544 21.1499 2.8499 17.0454 2.8499 11.9999C2.8499 6.9544 6.9544 2.8499 11.9999 2.8499Z" fill="#0C0C0C"/>
</svg>

<svg xmlns="http://www.w3.org/2000/svg" width="24" height="24" fill="none"><path fill="#0C0C0C" d="M6.35 10.561a.2.2 0 0 0 .001.283l5.508 5.506a.2.2 0 0 0 .283 0l5.508-5.506a.2.2 0 0 0 0-.283l-.92-.92a.2.2 0 0 0-.283 0L12 14.088 7.553 9.64a.2.2 0 0 0-.282 0z"/><path fill="#0C0C0C" fill-rule="evenodd" d="M12 22.85c5.992 0 10.85-4.858 10.85-10.85 0-5.993-4.858-10.85-10.85-10.85C6.007 1.15 1.15 6.007 1.15 12S6.007 22.85 12 22.85m0-20c5.045 0 9.15 4.104 9.15 9.15 0 5.045-4.105 9.15-9.15 9.15-5.046 0-9.15-4.105-9.15-9.15 0-5.046 4.104-9.15 9.15-9.15" clip-rule="evenodd"/></svg>
